packages/core/src/svgs/networks/branded/binance-smart-chain.svg

<svg width="24" height="24" viewBox="0 0 24 24" fill="none" xmlns="http://www.w3.org/2000/svg">
<path d="M6.54466 5.06112L12.0002 2L17.4558 5.06112L15.4557 6.19446L12.0002 4.26112L8.55022 6.19446L6.54466 5.06112ZM17.4558 8.92779L15.4557 7.79445L12.0002 9.72782L8.55022 7.79445L6.54466 8.92779V11.1889L9.98913 13.1222V16.9833L12.0002 18.1167L14.0058 16.9833V13.1222L17.4558 11.1889V8.92779ZM17.4558 15.0556V12.7889L15.4557 13.9223V16.1834L17.4558 15.0556ZM18.8835 15.8556L15.4336 17.7834V20.05L20.8892 16.9833V10.8612L18.8835 11.989V15.8556ZM16.878 6.99445L18.878 8.12779V10.3889L20.8892 9.26112V6.99445L18.8835 5.86114L16.878 7.00001V6.99445ZM9.98913 18.6055V20.8666L12.0002 22L14.0058 20.8666V18.6111L12.0002 19.7389L9.99471 18.6055H9.98913ZM6.54466 15.05L8.54467 16.1834V13.9223L6.54466 12.7889V15.0556V15.05ZM9.98913 6.99445L12.0002 8.12779L14.0058 6.99445L12.0002 5.86114L9.99471 7.00001L9.98913 6.99445ZM5.11688 8.12779L7.12244 6.99445L5.12243 5.86114L3.11133 7.00001V9.26669L5.11688 10.3945V8.13334V8.12779ZM5.11688 11.989L3.11133 10.8612V16.9833L8.56689 20.05V17.7778L5.12243 15.85V11.9834L5.11688 11.989Z" fill="#F0B90B"/>
</svg>

<svg xmlns="http://www.w3.org/2000/svg" width="24" height="24" fill="none" viewBox="0 0 24 24">
    <path fill="#F0B90B" d="M6.545 5.061 12 2l5.456 3.061-2 1.133L12 4.261 8.55 6.194zm10.91 3.867-2-1.134L12 9.728 8.55 7.794 6.545 8.928v2.26l3.444 1.934v3.861L12 18.117l2.006-1.134v-3.86l3.45-1.934zm0 6.128v-2.267l-2 1.133v2.261zm1.429.8-3.45 1.927v2.267l5.455-3.067v-6.122l-2.005 1.128zm-2.006-8.862 2 1.134v2.26l2.011-1.127V6.994l-2.005-1.133L16.878 7zM9.989 18.606v2.26L12 22l2.006-1.133V18.61L12 19.74l-2.005-1.134zM6.545 15.05l2 1.133v-2.26l-2-1.134v2.267zm3.444-8.056L12 8.128l2.006-1.134L12 5.861 9.995 7zM5.117 8.128l2.005-1.134-2-1.133L3.112 7v2.267l2.005 1.128zm0 3.861L3.11 10.861v6.122l5.456 3.067v-2.272L5.122 15.85v-3.867z"/>
</svg>
